X:31
T: HERMANN SCHLOG LAERMANN
N: Z0032
O: Europa, Mitteleuropa, Deutschland, Westfalen
R: Sagen - Lied, Romanze
M: 2/4
L: 1/16
K: E
 | =G3FE2G2 | A4=G2z
G | =G3FE2G2 | A4=G2
AB | =c3BA2=G2 | A4=G2
F2 | =G3FE2F2 | E4E2
F2 | A3=GF2E2 | D4E2z2

